assets/icons/lock.svg

<svg width="18" height="18" viewBox="0 0 18 18" fill="none" xmlns="http://www.w3.org/2000/svg">
<path d="M3.20086 14.1335C3.36952 15.3862 4.4071 16.3676 5.66974 16.4257C6.7322 16.4745 7.81148 16.5 9 16.5C10.1885 16.5 11.2678 16.4745 12.3302 16.4257C13.5929 16.3676 14.6305 15.3862 14.7992 14.1335C14.9093 13.316 15 12.4782 15 11.625C15 10.7718 14.9093 9.93398 14.7992 9.11648C14.6305 7.86375 13.5929 6.88237 12.3302 6.82432C11.2678 6.77548 10.1885 6.75 9 6.75C7.81148 6.75 6.7322 6.77548 5.66974 6.82432C4.4071 6.88237 3.36952 7.86375 3.20086 9.11648C3.09079 9.93398 3 10.7718 3 11.625C3 12.4782 3.09079 13.316 3.20086 14.1335Z" stroke="#7F7F7F" stroke-width="1.5"/>
<path d="M5.625 6.75V4.875C5.625 3.01104 7.13604 1.5 9 1.5C10.864 1.5 12.375 3.01104 12.375 4.875V6.75" stroke="#7F7F7F" stroke-width="1.5" stroke-linecap="round" stroke-linejoin="round"/>
<path d="M12 11.6172V11.6255" stroke="#7F7F7F" stroke-width="2" stroke-linecap="round" stroke-linejoin="round"/>
<path d="M9 11.6172V11.6255" stroke="#7F7F7F" stroke-width="2" stroke-linecap="round" stroke-linejoin="round"/>
<path d="M6 11.6172V11.6255" stroke="#7F7F7F" stroke-width="2" stroke-linecap="round" stroke-linejoin="round"/>
</svg>

<svg xmlns="http://www.w3.org/2000/svg" width="18" height="18" fill="none" viewBox="0 0 18 18"><path stroke="#7f7f7f" stroke-width="1.5" d="M3.2 14.134c.17 1.252 1.207 2.234 2.47 2.292 1.062.049 2.141.074 3.33.074a72 72 0 0 0 3.33-.074c1.263-.058 2.3-1.04 2.47-2.292.11-.818.2-1.656.2-2.509s-.09-1.691-.2-2.509c-.17-1.252-1.207-2.234-2.47-2.292A72 72 0 0 0 9 6.75c-1.189 0-2.268.025-3.33.074-1.263.058-2.3 1.04-2.47 2.292-.11.818-.2 1.656-.2 2.509s.09 1.691.2 2.508Z"/><path stroke="#7f7f7f" stroke-linecap="round" stroke-linejoin="round" stroke-width="1.5" d="M5.625 6.75V4.875a3.375 3.375 0 0 1 6.75 0V6.75"/><path stroke="#7f7f7f" stroke-linecap="round" stroke-linejoin="round" stroke-width="2" d="M12 11.617v.008m-3-.008v.008m-3-.008v.008"/></svg>
